X:222
T:Break O' Day
M:4/4
L:1/8
F:http://blackrosetheband.googlepages.com/ABCTUNES.ABC May 2009
C:as played by The Monks
K:G
Bc|:dBcA BAGB|ABAG FDBc|dBcA BAGB|ABAF G2 Bc|
dBcA BAGB|ABAG FDEF|DFAB AGFG|1 ABAF G2 Bc:|2ABAF G2ef||
gagf ed3|c4 A3G|FDEF DEFD|EDFD ED D2|
gagf ed3|c4 A3G|FDEF DEF2|1[G3B3][G3B3] ef:|2[G3B3][G3B3] Bc||
